X:1
T:The Castle
R:jig
M:6/8
L:1/8
K:Ador
|:~c2A BAG|AGE DB,G,|~A,2A, EDB,|DEG AGE|
|~c2A BAG|AGE DB,G,|~A,2A, EDB,|DB,G, ~A,2B:|
|cBA ~a2a|bag edB|GBd ~g2g|age dBG|
|Ace ~a2a|bag edB|GBd ~g2g|edB ~A2A|
|Ace ~a2a|bag edB|GBd ~g2g|GBd cBA|
|~c2c dcd|ede gab|age dBG|EFG ~A2B|